icons/EmojiSmile_filled.svg

<svg width="24" height="24" viewBox="0 0 24 24" fill="none" xmlns="http://www.w3.org/2000/svg">
<path fill-rule="evenodd" clip-rule="evenodd" d="M2.25,12c0,-5.38478 4.36522,-9.75 9.75,-9.75c5.3848,0 9.75,4.36522 9.75,9.75c0,5.3848 -4.3652,9.75 -9.75,9.75c-5.38478,0 -9.75,-4.3652 -9.75,-9.75zM8.25,9c-0.69036,0 -1.25,0.55964 -1.25,1.25c0,0.6904 0.55964,1.25 1.25,1.25c0.69036,0 1.25,-0.5596 1.25,-1.25c0,-0.69036 -0.55964,-1.25 -1.25,-1.25zM15.75,11.5c0.6904,0 1.25,-0.5596 1.25,-1.25c0,-0.69036 -0.5596,-1.25 -1.25,-1.25c-0.6904,0 -1.25,0.55964 -1.25,1.25c0,0.6904 0.5596,1.25 1.25,1.25zM8.53033,14.4697c-0.29289,-0.2929 -0.76777,-0.2929 -1.06066,0c-0.29289,0.2929 -0.29289,0.7677 0,1.0606c1.17248,1.1725 2.88143,1.7197 4.53033,1.7197c1.6489,0 3.3579,-0.5472 4.5303,-1.7197c0.2929,-0.2929 0.2929,-0.7677 0,-1.0606c-0.2929,-0.2929 -0.7677,-0.2929 -1.0606,0c-0.8276,0.8275 -2.1186,1.2803 -3.4697,1.2803c-1.3511,0 -2.64215,-0.4528 -3.46967,-1.2803z" fill="#002B51"/>
</svg>

<svg width="24" height="24" viewBox="0 0 24 24" fill="none" xmlns="http://www.w3.org/2000/svg">
<path fill-rule="evenodd" clip-rule="evenodd" d="M2.25 12C2.25 6.61522 6.61522 2.25 12 2.25C17.3848 2.25 21.75 6.61522 21.75 12C21.75 17.3848 17.3848 21.75 12 21.75C6.61522 21.75 2.25 17.3848 2.25 12ZM9.5 10.25C9.5 10.9404 8.94036 11.5 8.25 11.5C7.55964 11.5 7 10.9404 7 10.25C7 9.55964 7.55964 9 8.25 9C8.94036 9 9.5 9.55964 9.5 10.25ZM15.75 11.5C16.4404 11.5 17 10.9404 17 10.25C17 9.55964 16.4404 9 15.75 9C15.0596 9 14.5 9.55964 14.5 10.25C14.5 10.9404 15.0596 11.5 15.75 11.5ZM8.53033 14.4697C8.23744 14.1768 7.76256 14.1768 7.46967 14.4697C7.17678 14.7626 7.17678 15.2374 7.46967 15.5303C8.64215 16.7028 10.3511 17.25 12 17.25C13.6489 17.25 15.3579 16.7028 16.5303 15.5303C16.8232 15.2374 16.8232 14.7626 16.5303 14.4697C16.2374 14.1768 15.7626 14.1768 15.4697 14.4697C14.6421 15.2972 13.3511 15.75 12 15.75C10.6489 15.75 9.35785 15.2972 8.53033 14.4697Z" fill="#002B51"/>
</svg>
